X: 218
T: A Gunne Dubh
R: strathspey
M: 4/4
K: Gminor
G|:c2BGF2 FG|E2 EG BG EG|c2 BG F2 Fc|1 fcec F3 G:|2 fceFF3 G||
|:e>fe>c B>ce>f|e>cB>c f>cc>F|e>fe>c B>ce>c|f>ce>G F>FF>G:|

